src/assets/img/icons/dark/icon-technologies-c.svg

<svg width="99" height="111" viewBox="0 0 99 111" fill="none" xmlns="http://www.w3.org/2000/svg">
<path opacity="0.6" fill-rule="evenodd" clip-rule="evenodd" d="M49.225 39.0681C40.2347 39.0681 32.9445 46.3598 32.9445 55.357C32.9445 58.2987 33.7292 61.0556 35.0917 63.4376L63.3056 47.1834C60.4861 42.332 55.2375 39.0681 49.225 39.0681Z" fill="white"/>
<path opacity="0.6" fill-rule="evenodd" clip-rule="evenodd" d="M16.5306 55.3569C16.5306 37.2903 31.1694 22.6444 49.225 22.6444C61.3195 22.6444 71.8792 29.2167 77.5347 38.9861L97.2431 27.6319C96.4514 26.2431 95.2681 25.0792 93.6806 24.1597C80.5736 16.5986 67.4542 9.05973 54.3514 1.49167C50.8194 -0.549996 47.3944 -0.476385 43.8889 1.59306C38.6722 4.67361 12.5528 19.6444 4.77083 24.1556C1.56528 26.0125 0.00555559 28.8528 0.0041667 32.5458C2.91038e-08 47.7542 0.00416667 62.9597 0 78.1667C0 79.9861 0.381944 81.6 1.15139 82.9903L20.8611 71.6347C18.0156 66.6823 16.5222 61.0687 16.5306 55.3569Z" fill="white"/>
<path opacity="0.75" fill-rule="evenodd" clip-rule="evenodd" d="M35.0917 63.4374C37.8972 68.3402 43.1736 71.6458 49.225 71.6458C55.3139 71.6458 60.6194 68.2985 63.4111 63.343L49.3764 55.2083L35.0917 63.4374Z" fill="white"/>
<path opacity="0.75" fill-rule="evenodd" clip-rule="evenodd" d="M49.225 88.0681C37.0916 88.0681 26.5028 81.457 20.8611 71.6347L1.15137 82.9903C1.94164 84.4208 3.14164 85.6153 4.76664 86.557C12.55 91.0681 38.6722 106.039 43.8875 109.118C47.3944 111.188 50.8194 111.263 54.3528 109.222C67.4555 101.653 80.575 94.1139 93.6847 86.5528C95.3083 85.6125 96.5083 84.4167 97.3 82.9861L77.6194 71.5806C71.9861 81.4292 61.3805 88.0681 49.225 88.0681Z" fill="white"/>
<path opacity="0.9" fill-rule="evenodd" clip-rule="evenodd" d="M95.8097 57.1943H92.0653V60.9416H88.3194V57.1943H84.575V53.4471H88.3194V49.6999H92.0653V53.4471H95.8097V57.1943ZM82.1444 57.1943H78.4028V60.9416H74.6569V57.1943H70.9125V53.4471H74.6569V49.6999H78.4028V53.4471H82.1458V57.1943H82.1444ZM98.4444 32.5499C98.4444 30.6888 98.0472 29.0429 97.2417 27.6318L49.375 55.2082L97.3 82.986C98.0667 81.5971 98.4486 79.9832 98.45 78.1624C98.45 78.1624 98.45 47.7568 98.4444 32.5499Z" fill="white"/>
</svg>

<svg xmlns="http://www.w3.org/2000/svg" width="99" height="111" fill="none"><path fill="#fff" fill-rule="evenodd" d="M49.23 39.07a16.28 16.28 0 00-14.14 24.37l28.22-16.26a16.27 16.27 0 00-14.09-8.11z" clip-rule="evenodd" opacity=".6"/><path fill="#fff" fill-rule="evenodd" d="M16.53 55.36a32.7 32.7 0 0161-16.37l19.71-11.36a9.4 9.4 0 00-3.56-3.47C80.58 16.6 67.45 9.06 54.35 1.49 50.82-.55 47.4-.48 43.9 1.6 38.67 4.67 12.55 19.64 4.77 24.16 1.57 26 .01 28.86 0 32.55c0 15.2 0 30.41 0 45.62 0 1.82.38 3.43 1.15 4.82l19.71-11.36a32.58 32.58 0 01-4.33-16.27z" clip-rule="evenodd" opacity=".6"/><path fill="#fff" fill-rule="evenodd" d="M35.1 63.44a16.27 16.27 0 0028.31-.1l-14.03-8.13-14.29 8.23z" clip-rule="evenodd" opacity=".75"/><path fill="#fff" fill-rule="evenodd" d="M49.23 88.07a32.67 32.67 0 01-28.37-16.44L1.16 83a9.37 9.37 0 003.6 3.57c7.79 4.5 33.91 19.48 39.13 22.56 3.5 2.07 6.93 2.14 10.46.1 13.1-7.57 26.23-15.1 39.33-22.67A9.37 9.37 0 0097.3 83l-19.68-11.4a32.68 32.68 0 01-28.4 16.48z" clip-rule="evenodd" opacity=".75"/><path fill="#fff" fill-rule="evenodd" d="M95.81 57.2h-3.74v3.74h-3.75V57.2h-3.74v-3.74h3.74V49.7h3.75v3.75h3.74v3.74zm-13.67 0H78.4v3.74h-3.74V57.2H70.9v-3.74h3.75V49.7h3.74v3.75h3.75v3.74zm16.3-24.65c0-1.86-.4-3.5-1.2-4.92L49.38 55.21 97.3 82.99c.77-1.4 1.15-3 1.15-4.83 0 0 0-30.4 0-45.61z" clip-rule="evenodd" opacity=".9"/></svg>
